X:1
T:Title
%%score { ( 1 4 ) | ( 2 3 ) }
L:1/8
M:9/8
K:D
V:1 treble nm="Grand Piano"
V:4 treble 
V:2 bass 
V:3 bass 
V:1
 z3 z2[Q:1/4=100] [FA] [FA][=F^G][^FA] | [Fd]3- [Fd]2 F F=F[A,D^F] | %2
 [DFA]3- [DFA]2[K:bass] [F,D] D-[DE][K:treble][A,DF] | [GB]3 A2 [DFA] [DFA][EG][A,DF] | %4
 [A,CE]3- [A,CE]2 [A,CE] [A,CE]2 [A,DF] | [CEG]3- [CEG]2 [Ge] [Ge][Fd][Ec] | [Fd]6 [Fd]3 | %7
 c3- c2 c cdc | B3 [CA]6 | F3- F2 F FEF | G6 z3 | [CG]3- [CG]2 [CG] [CG][DF][EG] | A6 z3 | %13
 [FA]3 [Fd]3 [A,DF][FA][DAd] | [DAc]3 B3 z3 | G3 e3 GAB | [GB]3 [FA]3 z3 | %17
 [FA]2 [FA] [GB]2 [FA] [=F^G]2 [^FA] | [DF]3 [FA]3 [Fd]3 | z3 z3 c3 |[M:5/8] [Fd]-[Fd]- [Fd]3 |] %21
V:2
 z3 z2 [D,D] [D,D]2 [D,D] | z3 z3 .A,3 | D,3- D,2 D, z G,D, | z3 F2 D, z A,D, | %4
 A,,3- A,,2 A,, A,,2 A,, | A,,3- A,,2 [A,,A,] [A,,A,]2 [A,,A,] | [D,A,]6 [D,A,]3 | %7
 [E,A,E]3- [E,A,E]2 [E,A,E] [E,E]-[E,B,E][E,A,E] | [E,^G,D]3 [A,,A,]6 | %9
 [D,A,D]3- [D,A,D]2 [D,A,D] [D,A,D][G,A,C][F,A,D] | [E,A,C][E,A,][E,A,] [E,A,]3 z3 | %11
 [A,,E,]3- [A,,E,]2 [A,,E,] [A,,E,][A,,A,][A,,A,] | [D,A,][D,D][D,D] [D,D]3 z3 | %13
 [D,D]3 [D,A,]3 z DF, | G,3[K:treble] [G,DG]3 z3 | [A,CE]3 [A,CG]3 EF[A,CG] | [D,D]3 [D,D]3 z3 | %17
 [D,D]2 [D,D] [D,D]2 [D,D] [D,D]2 [D,D] | [D,A,]3 [D,D]3 [D,A,]3 | [G,B,]3 A,3 [A,,A,]3 | %20
[M:5/8] [D,A,]-[D,A,]- [D,A,]3 |] %21
V:3
 x9 | [D,A,]3- [D,A,]2 [D,A,D] [D,D]-[D,^G,D]D, | z3 z3 .D,3 | D,6 .D,3 | x9 | x9 | x9 | %7
 z3 z3 .A,3 | x9 | x9 | x9 | x9 | x9 | z3 z3 .D,3 | x3[K:treble] x6 | z3 z3 .[A,C]3 | x9 | x9 | %18
 x9 | x9 |[M:5/8] x5 |] %21
V:4
 x9 | x9 | z3 z3[K:bass] .F,3[K:treble] | D6 z3 | x9 | x9 | x9 | x9 | x9 | x9 | z CC C3 z3 | x9 | %12
 FFF F3 z3 | x9 | x9 | x9 | x9 | x9 | x9 | [Ge]3 [Fd]3 E2 G |[M:5/8] x5 |] %21

